X:17
T:Acorn Hill
C:John Reischman
N:From "No Hurry" Scott Nygaard 
N:Transcribed by Mike Stangeland
R:bluegrass
L:1/8
Q:1/4=235
M:4/4
K:D
de |: "D"fg fe dc de | fd ed Bc dB | AF DF AB AG | "A"[A2E2] [AE][AE] [A2E2] FE | 
|"D"DA FD AF DF | "G"GA Bd gf ec | "A"Ac ef af eg | "D"fd dd d2 de :|
|: fg "D"af dc de | |fg af bf ae | fg af df ed | "Em"B2 [eB][eB] BB Bd |
| ef ga gf ed | Bc de dA cB | |"A"Ac ef af eg |1 f"D"d dd dd de :|2 f"D"d dd d4 ||

